X:41
T:Saucy Kate
% NFF Book 2023
% Bush Traditions recording played by Jeff Lawrie
S:collected from Albert 'Dooley' Chapman, Dunedoo, NSW
S:collected by Chris Sullivan
Z:transcribed by Jeff Lawrie
R:Polka
M:4/4
L:1/8
K:D
F/G/|:"D"AF FE DE E>E|"A"GE ED E3F| GE E>D CE EE/G/|BA AG "D"[D3F3]F/G/|
"D"AF FE DF F>F|"A"GE ED F3G|"D"A>B AG FG A>B|"A"AG "D"FE D4||

